X:1
T:Maidstone, 77.77 D
T:Maidstone, 77.77 D
T:Walter Bond Gilbert, 1863
T:Public Domain Courtesy of the Cyber Hymnal™
C:Walter Bond Gilbert, 1863
Z:Public Domain
Z:Courtesy of the Cyber Hymnal™
%%score ( 1 2 ) ( 3 4 )
L:1/8
Q:1/4=125
M:3/4
K:G
V:1 treble 
V:2 treble 
V:3 bass 
V:4 bass 
V:1
 (D2 E2) [CF]2 | ([B,G]2 [EA]2) [DB]2 | [Ec]2 [DB]2 [DA]2 | [DB]6 | ([Gd]2 [Fc]2) [GB]2 | %5
 (A2 B2) [Ec]2 | [DG]4 [DF]2 | [DG]6 | (D2 E2) [CF]2 | ([B,G]2 [EA]2) [DB]2 | ([Ec]2 [DB]2) [DA]2 | %11
 [DB]6 | ([Gd]2 [Fc]2) [GB]2 | (A2 B2) [Ec]2 | [DG]4 [DF]2 | [DG]6 | [DA]4 [DB]2 | [Cc]4 [DB]2 | %18
 [EA]4 [EG]2 | [DF]6 | [DB]4 [Ec]2 | [Dd]4 [Ec]2 | [DB]4 [DA]2 | [DB]6 | [Gc]4 [Gd]2 | %25
 [Ge]4 [Gd]2 | c4 [GB]2 | [FA]6 | ([Gd]2 [Fc]2) [GB]2 | A2 B2 [Ec]2 | [DG]4 [DF]2 | [DG]6 |] %32
V:2
 B,4 x2 | x6 | x6 | x6 | x6 | E4 x2 | x6 | x6 | B,4 x2 | x6 | x6 | x6 | x6 | E4 x2 | x6 | x6 | x6 | %17
 x6 | x6 | x6 | x6 | x6 | x6 | x6 | x6 | x6 | (E2 F2) x2 | x6 | x6 | E4 x2 | x6 | x6 |] %32
V:3
 G,4 [D,A,]2 | G,4 [B,,G,]2 | G,4 [D,F,]2 | [G,,G,]6 | B,2 [A,C]2 [G,D]2 | [C,E]2 [B,,D]2 [A,,C]2 | %6
 [D,B,]4 [D,B,]2 | [G,,B,]6 | G,4 [D,A,]2 | G,4 [B,,G,]2 | G,4 [D,F,]2 | [G,,G,]6 | %12
 B,2 [A,C]2 [G,D]2 | [C,E]2 [B,,D]2 [A,,C]2 | [D,B,]4 [D,A,]2 | [G,,B,]6 | [D,F,]4 [B,,^G,]2 | %17
 [A,,A,]4 [B,,^G,]2 | [C,A,]4 [^C,A,]2 | [D,A,]6 | G,4 [E,G,]2 | [B,,G,]4 [C,G,]2 | G,4 [D,F,]2 | %23
 G,6 | [E,C]4 [G,B,]2 | C4 [B,D]2 | A,4 [G,B,]2 | [D,D]6 | B,2 [A,C]2 [G,D]2 | %29
 [CE]2 [B,D]2 [A,C]2 | [D,B,]4 [D,A,]2 | [G,,B,]6 |] %32
V:4
 G,4 x2 | (E,2 C,2) x2 | (A,,2 D,2) x2 | x6 | B,2 x4 | x6 | x6 | x6 | G,4 x2 | (E,2 C,2) x2 | %10
 (A,,2 D,2) x2 | x6 | B,2 x4 | x6 | x6 | x6 | x6 | x6 | x6 | x6 | G,4 x2 | x6 | G,4 x2 | G,6 | x6 | %25
 C4 x2 | A,4 x2 | x6 | B,2 x4 | x6 | x6 | x6 |] %32

